X: 7
T: Coppers And Brass
R: jig
M: 6/8
L: 1/8
K: Gmaj
A| B3 GBd | cBc ABc | B3 GBd | cAG FGA |
B3 GBd | cBc ABc | df/e/d cAF | AGF G2 :||
d | f3 fed | cAG FGA | dgg gfg | afd d2 e |
f3 fed | cAG FGA | B/c/dB cAF | AGF G2 :||
f | gdB gdB | ecA ecA | B3 GBd | cAG FGA |
gdB gdB | ecA ecA | B/c/dB cAF | AGF G2 :||


Tune 228	Setting 26014

